images/patterns/patt_1-6.svg

<svg width="118" height="6"><path d="M0 6h1V0H0v6zm52 0h-1V0h1v6zm66 0h-1V0h1v6zM85 6h-1V0h1v6zm12 0h1V0h-1v6zm4 0h-1V0h1v6z" fill="current-color"/></svg>

<svg width="118" height="6"><path d="M0 6H1V0H0V6ZM52 6H51V0H52V6ZM118 6H117V0H118V6ZM85 6H84V0H85V6ZM97 6H98V0H97V6ZM101 6H100V0H101V6Z" fill="current-color"/>
</svg>
